pix_core/i/hierarchylock.svg

<svg preserveAspectRatio="xMinYMid meet" viewBox="0 0 448 512" xmlns="http://www.w3.org/2000/svg"><path d="m144 144v48h160v-48c0-44.2-35.8-80-80-80s-80 35.8-80 80zm-64 48v-48c0-79.5 64.5-144 144-144s144 64.5 144 144v48h16c35.3 0 64 28.7 64 64v192c0 35.3-28.7 64-64 64h-320c-35.3 0-64-28.7-64-64v-192c0-35.3 28.7-64 64-64z" fill="#fff"/></svg>

<svg xmlns="http://www.w3.org/2000/svg" viewBox="0 0 448 512" preserveAspectRatio="xMinYMid meet"><!--!Font Awesome Free 6.5.2 by @fontawesome - https://fontawesome.com License - https://fontawesome.com/license/free Copyright 2024 Fonticons, Inc.--><path fill="#fff" d="M144 144v48H304V144c0-44.2-35.8-80-80-80s-80 35.8-80 80zM80 192V144C80 64.5 144.5 0 224 0s144 64.5 144 144v48h16c35.3 0 64 28.7 64 64V448c0 35.3-28.7 64-64 64H64c-35.3 0-64-28.7-64-64V256c0-35.3 28.7-64 64-64H80z"/></svg>
